ui/icon/svg/close-sharp.svg

<svg viewBox="0 0 512 512" xmlns="http://www.w3.org/2000/svg"><path d="m400 145.49-33.49-33.49-110.51 110.51-110.51-110.51-33.49 33.49 110.51 110.51-110.51 110.51 33.49 33.49 110.51-110.51 110.51 110.51 33.49-33.49-110.51-110.51z"/></svg>

<svg xmlns="http://www.w3.org/2000/svg" class="ionicon" viewBox="0 0 512 512"><title>Close</title><path d="M400 145.49L366.51 112 256 222.51 145.49 112 112 145.49 222.51 256 112 366.51 145.49 400 256 289.49 366.51 400 400 366.51 289.49 256 400 145.49z"/></svg>
